data/icons/scalable/actions/work-symbolic.svg

<?xml version="1.0" encoding="UTF-8"?>
<svg height="16px" viewBox="0 0 16 16" width="16px" xmlns="http://www.w3.org/2000/svg">
    <path d="m 6 1 c -0.554688 0 -1 0.445312 -1 1 v 1 h -2.8125 c -1.207031 0 -2.1875 0.800781 -2.1875 2 v 7.976562 c 0 1.199219 0.980469 2 2.1875 2 h 11.625 c 1.207031 0 2.1875 -1.019531 2.1875 -2.21875 v -7.539062 c 0 -1.199219 -0.980469 -2.21875 -2.1875 -2.21875 h -2.8125 v -1 c 0 -0.554688 -0.445312 -1 -1 -1 z m 0 1 h 4 v 1 h -4 z m -4 3 h 12 v 2 h -12 z m 0 3 h 4 c 0 1 1 1 1 1 h 2 s 1 0 1 -1 h 4 v 5 h -12 z m 0 0" fill="#222222"/>
</svg>

<svg xmlns="http://www.w3.org/2000/svg" width="16" height="16" viewBox="0 0 16 16"><path fill="#222" d="M6 1c-.555 0-1 .445-1 1v1H2.188C.98 3 0 3.8 0 5v7.977c0 1.199.98 2 2.188 2h11.625c1.207 0 2.187-1.02 2.187-2.22V5.22C16 4.019 15.02 3 13.813 3H11V2c0-.555-.445-1-1-1zm0 1h4v1H6zM2 5h12v2H2zm0 3h4c0 1 1 1 1 1h2s1 0 1-1h4v5H2zm0 0"/></svg>
